public/favicon.svg

<svg fill="none" height="32" viewBox="0 0 32 32" width="32" xmlns="http://www.w3.org/2000/svg" xmlns:xlink="http://www.w3.org/1999/xlink"><clipPath id="a"><path d="m0 0h32v32h-32z"/></clipPath><g clip-path="url(#a)"><path d="m0 0h32v32h-32z" fill="#f3f3f3"/><path d="m20.5568 11c-.0757-.947-.4309-1.68561-1.0653-2.21591-.625-.5303-1.5767-.79545-2.8551-.79545-.8144 0-1.482.09943-2.0029.29829-.5113.1894-.8901.44981-1.1363.78125-.2463.33144-.3741.71023-.3836 1.13632-.0189.3504.0427.6677.1847.9517.1515.2747.3883.5256.7102.7529.322.2178.7339.4167 1.2358.5966s1.0985.3409 1.7898.4829l2.3864.5114c1.6098.3409 2.9876.7907 4.1335 1.3494 1.1458.5587 2.0833 1.2169 2.8125 1.9745.7291.7481 1.2642 1.5909 1.6051 2.5284.3504.9375.5303 1.9602.5398 3.0682-.0095 1.9128-.4877 3.5322-1.4347 4.8579-.947 1.3258-2.3011 2.3343-4.0625 3.0256-1.7519.6913-3.8589 1.0369-6.321 1.0369-2.5284 0-4.7349-.374-6.6193-1.1221-1.87504-.7482-3.33337-1.8987-4.37504-3.4518-1.03219-1.5625-1.55303-3.5606-1.5625-5.9943h7.50004c.0473.8902.2699 1.6383.6676 2.2443.3977.6061.9564 1.0654 1.6761 1.3779.7292.3125 1.5957.4687 2.5994.4687.8428 0 1.5483-.1041 2.1165-.3125.5682-.2083.9991-.4971 1.2926-.8664.2936-.3694.4451-.7908.4546-1.2642-.0095-.4451-.1563-.8334-.4404-1.1648-.2746-.3409-.7291-.644-1.3636-.9091-.6345-.2746-1.4915-.5303-2.571-.7671l-2.8977-.625c-2.5758-.5587-4.60705-1.4914-6.0938-2.7983-1.47727-1.3162-2.21117-3.1107-2.2017-5.3835-.00947-1.84656.48295-3.46115 1.47727-4.84372 1.00379-1.39205 2.3911-2.47633 4.16193-3.25284 1.7803-.77652 3.821-1.16478 6.1222-1.16478 2.3484 0 4.3797.393 6.0937 1.17898 1.714.78599 3.0351 1.89394 3.9631 3.32386.9375 1.42046 1.411 3.08239 1.4204 4.9858z" fill="#000"/></g></svg>

<svg width="32" height="32" viewBox="0 0 32 32" fill="none" xmlns="http://www.w3.org/2000/svg">
<g clip-path="url(#clip0_2184_53842)">
<rect width="32" height="32" fill="#F3F3F3"/>
<path d="M20.5568 11C20.4811 10.053 20.1259 9.31439 19.4915 8.78409C18.8665 8.25379 17.9148 7.98864 16.6364 7.98864C15.822 7.98864 15.1544 8.08807 14.6335 8.28693C14.1222 8.47633 13.7434 8.73674 13.4972 9.06818C13.2509 9.39962 13.1231 9.77841 13.1136 10.2045C13.0947 10.5549 13.1563 10.8722 13.2983 11.1562C13.4498 11.4309 13.6866 11.6818 14.0085 11.9091C14.3305 12.1269 14.7424 12.3258 15.2443 12.5057C15.7462 12.6856 16.3428 12.8466 17.0341 12.9886L19.4205 13.5C21.0303 13.8409 22.4081 14.2907 23.554 14.8494C24.6998 15.4081 25.6373 16.0663 26.3665 16.8239C27.0956 17.572 27.6307 18.4148 27.9716 19.3523C28.322 20.2898 28.5019 21.3125 28.5114 22.4205C28.5019 24.3333 28.0237 25.9527 27.0767 27.2784C26.1297 28.6042 24.7756 29.6127 23.0142 30.304C21.2623 30.9953 19.1553 31.3409 16.6932 31.3409C14.1648 31.3409 11.9583 30.9669 10.0739 30.2188C8.19886 29.4706 6.74053 28.3201 5.69886 26.767C4.66667 25.2045 4.14583 23.2064 4.13636 20.7727H11.6364C11.6837 21.6629 11.9063 22.411 12.304 23.017C12.7017 23.6231 13.2604 24.0824 13.9801 24.3949C14.7093 24.7074 15.5758 24.8636 16.5795 24.8636C17.4223 24.8636 18.1278 24.7595 18.696 24.5511C19.2642 24.3428 19.6951 24.054 19.9886 23.6847C20.2822 23.3153 20.4337 22.8939 20.4432 22.4205C20.4337 21.9754 20.2869 21.5871 20.0028 21.2557C19.7282 20.9148 19.2737 20.6117 18.6392 20.3466C18.0047 20.072 17.1477 19.8163 16.0682 19.5795L13.1705 18.9545C10.5947 18.3958 8.56345 17.4631 7.0767 16.1562C5.59943 14.84 4.86553 13.0455 4.875 10.7727C4.86553 8.92614 5.35795 7.31155 6.35227 5.92898C7.35606 4.53693 8.74337 3.45265 10.5142 2.67614C12.2945 1.89962 14.3352 1.51136 16.6364 1.51136C18.9848 1.51136 21.0161 1.90436 22.7301 2.69034C24.4441 3.47633 25.7652 4.58428 26.6932 6.0142C27.6307 7.43466 28.1042 9.09659 28.1136 11H20.5568Z" fill="black"/>
</g>
<defs>
<clipPath id="clip0_2184_53842">
<rect width="32" height="32" fill="white"/>
</clipPath>
</defs>
</svg>
